X: 11949
T: En Pasando La Perruca
R: reel
M: 4/4
K: Bminor
B (3c/d/e/|:f3-f/f/ f2 g>f|e3c de f>e|d3B ed cB|1 B^A- A3 B B (3c/d/e/:|2 B^A-A2 BA Bc||
d>c B2 d2 ed/e/|f2 zB B^A Bc|d2 e>d c>B ^A>c|B>c de cd B2|
Bc de cd B2|f3f g3g|gf ef fe dc|d>c d>c d>c d>c|B6||

